pieces/kosal/bw.svg

<svg xmlns="http://www.w3.org/2000/svg" viewBox="0 0 81 81"><style>.st0{fill:none}.st1{fill:#fff}.st2{fill:#cfcecf}</style><path class="st0" d="M0 0h81v81H0z"/><path class="st1" d="M61.4 71l-11.9-9.1 10.6-14.6c0-11-4.9-19.9-11.9-26.3l-1.7-.8-7.9 14.3-1.5-1.6 7.8-14.7 2.7-5.1v-.2c0-3.6-2.9-6.6-6.6-6.6-3.6 0-6.6 2.9-6.6 6.6v.2l2.3 4.4C28 24.1 20.9 34.1 20.9 47.3l10.6 14.6L19.6 71h41.8z"/><path class="st2" d="M45.6 70.7H60l-10.4-9.5h-6.8zM50.8 25.1C54.7 42.1 36 55.8 36 55.8l7.3 4.7h7.4l10.2-13.2-1.5-8.6-3.6-8.3-2.6-4.4-2.4-.9zM44.5 8.6c.8 2.4-3.4 4.4-3.4 4.4v5.1l3.3.1 3-4.3-.3-3.4L45 8.6h-.5z"/><path d="M65 72.2L50.9 61.6l10.2-14v-.4c0-14.1-7.6-23.1-12.2-27.3l-2.3-2.3 2.1-3.9.1-.3v-.5c0-4.3-3.5-7.9-7.9-7.9-4.3 0-7.8 3.5-7.8 7.9v.5l1.9 3.7c-5.9 4.6-15.5 14.6-15.5 30.1v.4l10.2 14L16 72.2h49zM22.5 46.9c-.3-14.6 9.3-24 15-28.2l.9-.6-2.7-5.1c0-2.9 2.4-5.3 5.3-5.3s5.3 2.4 5.4 5.3L35.8 34.6v.1l2.2 5.8 9.3-18.8 1.1 1c4.8 4.7 10.4 12.7 10.1 24.1l-9.2 13H31.8l-9.3-12.9zm10.4 15.6H48l9.8 7.3H23.2l9.7-7.3z"/><path d="M36.2 18h4.9l-2.7 2.1h-3.8"/></svg>

<svg width="81" height="81" viewBox="0 0 81 81" fill="none" xmlns="http://www.w3.org/2000/svg">
<path d="M61.4 71L49.5 61.9L60.1 47.3C60.1 36.3 55.2 27.4 48.2 21L46.5 20.2L38.6 34.5L37.1 32.9L44.9 18.2L47.6 13.1V12.9C47.6 9.3 44.7 6.3 41 6.3C37.4 6.3 34.4 9.2 34.4 12.9V13.1L36.7 17.5C28 24.1 20.9 34.1 20.9 47.3L31.5 61.9L19.6 71H61.4Z" fill="white"/>
<path d="M45.6 70.7H60L49.6 61.2H42.8L45.6 70.7ZM50.8 25.1C54.7 42.1 36 55.8 36 55.8L43.3 60.5H50.7L60.9 47.3L59.4 38.7L55.8 30.4L53.2 26L50.8 25.1V25.1ZM44.5 8.6C45.3 11 41.1 13 41.1 13V18.1L44.4 18.2L47.4 13.9L47.1 10.5L45 8.6H44.5Z" fill="#CFCECF"/>
<path d="M65 72.2L50.9 61.6L61.1 47.6V47.2C61.1 33.1 53.5 24.1 48.9 19.9L46.6 17.6L48.7 13.7L48.8 13.4V12.9C48.8 8.6 45.3 5 40.9 5C36.6 5 33.1 8.5 33.1 12.9V13.4L35 17.1C29.1 21.7 19.5 31.7 19.5 47.2V47.6L29.7 61.6L16 72.2H65ZM22.5 46.9C22.2 32.3 31.8 22.9 37.5 18.7L38.4 18.1L35.7 13C35.7 10.1 38.1 7.7 41 7.7C43.9 7.7 46.3 10.1 46.4 13L35.8 34.6V34.7L38 40.5L47.3 21.7L48.4 22.7C53.2 27.4 58.8 35.4 58.5 46.8L49.3 59.8H31.8L22.5 46.9ZM32.9 62.5H48L57.8 69.8H23.2L32.9 62.5Z" fill="black"/>
<path d="M36.2 18H41.1L38.4 20.1H34.6" fill="black"/>
</svg>
